X:1
T:Title
%%score { ( 1 3 ) | ( 2 4 ) }
L:1/8
M:3/4
K:G
V:1 treble nm="Grand Piano"
V:3 treble 
V:2 bass 
V:4 bass 
V:1
 z2 z2[Q:1/4=94] [B,B][B,A] | [CG]2 [CE]2 [CE]D | D2 [DG]2 GA | B2 B2 [EB][^CA] |[M:2/4] A4 | %5
[M:1/4] [B,B][B,A] |[M:3/4] [CG]2 [CE]2 [CE]D | D2 [DG]2 BB | A[Dd] [A,DF]2[K:bass] [G,^CE]2 | %9
[M:2/4] [F,D]4 |[M:1/4][K:treble] [G,DG][DB] |[M:3/4] A3 G dB | A2 G2 [EA][A,EG] | %13
 [A,DF]3 [A,DA] [B,DE][G,^CF] |[M:2/4] [F,D]4 |[M:1/4] [G,DG]A |[M:3/4] B2 G2 [EA]B | z2 A2 z2 | %18
 [DGB]2 [DG]2 [EGA][CFB] |[M:2/4] [B,G]4 |] %20
V:2
 z2 z2 [G,,D,][G,,^D,] | [G,,E,]2 [G,,G,]2 [A,,F,][C,F,A,] | [B,,G,]2 [B,,G,]2 [E,G,B,][E,G,B,] | %3
 [E,G,B,]2 [D,F,D]2 [^C,G,][A,,G,] |[M:2/4] G,2 z2 |[M:1/4] [G,,G,][G,,^D,] | %6
[M:3/4] [G,,E,]2 [G,,G,]2 [A,,F,][C,F,A,] | [B,,G,]2 [B,,G,]2 [E,G,B,][E,G,^C] | %8
 [F,D][B,,F,] A,,2 A,,2 |[M:2/4] D,2 C,2 |[M:1/4] B,,[G,,G,] | %11
[M:3/4] [D,F,C]3 [E,G,B,] [F,A,D][G,D] | [D,F,C]2 [E,G,B,]2 [^C,G,]C, | D,3 F,, G,,A,, | %14
[M:2/4] D,4 |[M:1/4] B,,[D,F,D] |[M:3/4] [G,D]2 [G,B,D]2 [C,A,][E,^G,E] | z2 C2 z2 | %18
 G,2 B,,2 C,D, |[M:2/4] G,,4 |] %20
V:3
 x6 | x6 | x6 | x6 |[M:2/4] E2 [F,D]2 |[M:1/4] x2 |[M:3/4] x6 | x6 | x4[K:bass] x2 |[M:2/4] x4 | %10
[M:1/4][K:treble] x2 |[M:3/4] x6 | x6 | x6 |[M:2/4] x4 |[M:1/4] x2 |[M:3/4] x6 | c2 z ^D d[=DFc] | %18
 x6 |[M:2/4] x4 |] %20
V:4
 x6 | x6 | x6 | x6 |[M:2/4] D,4 |[M:1/4] x2 |[M:3/4] x6 | x6 | x6 |[M:2/4] x4 |[M:1/4] x2 | %11
[M:3/4] x6 | x6 | x6 |[M:2/4] x4 |[M:1/4] x2 |[M:3/4] x6 | [A,E]2 [A,E]G, [F,A,D]D, | x6 | %19
[M:2/4] x4 |] %20

